icons/24px/deployedCode.svg

<svg width="24" height="24" viewBox="0 0 24 24" fill="none" xmlns="http://www.w3.org/2000/svg">
<path fill-rule="evenodd" clip-rule="evenodd" d="M11.1056 3.21683C11.6686 2.92772 12.3314 2.92772 12.8944 3.21683L19.8944 6.81111C20.572 7.15902 21 7.8702 21 8.64815V15.3519C21 16.1298 20.572 16.841 19.8944 17.1889L12.8944 20.7832C12.3314 21.0723 11.6686 21.0723 11.1056 20.7832L4.10557 17.1889C3.428 16.841 3 16.1298 3 15.3519V8.64815C3 7.8702 3.428 7.15902 4.10557 6.81111L11.1056 3.21683ZM6.20194 7.98294L12 5.00582L17.7981 7.98294L12 11L6.20194 7.98294ZM5 9.61803V15.3519C5 15.3731 5.00575 15.3895 5.0123 15.4003C5.01593 15.4064 5.01992 15.4101 5.01992 15.4101L11 18.4807V12.7266L5 9.61803ZM13 18.4807L18.9801 15.4101C18.9801 15.4101 18.9841 15.4064 18.9877 15.4003C18.9943 15.3895 19 15.3731 19 15.3519V9.61803L13 12.7266V18.4807Z" fill="black"/>
</svg>

<?xml version="1.0" encoding="UTF-8"?>
<svg id="Layer_1" data-name="Layer 1" xmlns="http://www.w3.org/2000/svg" viewBox="0 0 24 24">
  <defs>
    <style>
      .cls-1 {
        fill-rule: evenodd;
        stroke-width: 0px;
      }
    </style>
  </defs>
  <path class="cls-1" d="m11.1056,3.2168c.563-.2891,1.2258-.2891,1.7888,0l7,3.5943c.6776.3479,1.1056,1.0591,1.1056,1.837v6.7037c0,.7779-.428,1.4891-1.1056,1.837l-7,3.5943c-.563.2891-1.2258.2891-1.7888,0l-7-3.5943c-.6776-.3479-1.1056-1.0591-1.1056-1.837v-6.7037c0-.778.428-1.4891,1.1056-1.837l7-3.5943Zm-4.9037,4.7661l5.7981-2.9771,5.7981,2.9771-5.7981,3.0171-5.7981-3.0171Zm-1.2019,1.6351v5.7339c0,.0212.0058.0376.0123.0484.0036.0061.0076.0098.0076.0098l5.9801,3.0706v-5.7541l-6-3.1086Zm8,8.8627l5.9801-3.0706s.004-.0037.0076-.0098c.0066-.0108.0123-.0272.0123-.0484v-5.7339l-6,3.1086v5.7541Z"/>
</svg>
